!!!XEN: Song of the thunders
!!!AGN: Dream song
!!!COM: Anonymous
!!!CNT: Native American -- Ojibway
!!!TXO: Ojibway
!!!MLC: White Earth reservation, northern Minnesota, U.S.A.
!!!MRD: 1907-1909///
!!!MPN: Ga'gandac' ("One whose sails are driven by the wind")
**kern
*MM120
*Imale
*k[b-e-]
*clefF4
*M2/4
=1
8f
8f
[4f
=2
4f]
4d
=3
8f
8d
16f
16d
16c
[16B-
=4
*M3/4
8.B-]
16B-
4.B-
8B-
=5
2.B-
=6
*M2/4
8f
8f
[4f
=7
4f]
4d
=8
8f
8d
12f
12d
12c
=9
*M3/4
8.B-
16B-
4.B-
8B-
=10
2.B-
=11
4f
8f
8d
8f
8d
=12
*M2/4
4B-
8B-
8B-
=13
12G
12B-
12B-
12B-
12B-
12G
=14
4F
8F
8F
=15
*M3/4
2.F
=16
*M2/4
8B-
8B-
8B-
16.G
32B-
=17
4F
8.F
16B-
=18
4F
4D
=19
2F
=20
4D
16F
8.D
=21
8.BB-
16BB-
4BB-
=22
2BB-
==
*-
!!!OCL: Frances Densmore
!!!YOR: Chippewa [i.e., Ojibway] Music, Bulletin 45 of the Bureau of American Ethnology, Smitsonian Institution
!!!ONM: 113
!!!PPG: 127
!!!PUB: published
!!!PPR: Government Printing Office
!!!PPP: Washington, D.C.
!!!PDT: 1909///
!!!EST: missing clef changes, text, drum tempo, and drum part
!!!YEC: Copyright 1998 Paul von Hippel
!!!YEM: Rights to all derivate electronic formats reserved.
!!!EFL: 9/42
